alura/assets/api/cursos/keras-primeiros-passos-redes-neurais.svg

<svg width="150" height="150" viewBox="0 0 150 150" fill="none" xmlns="http://www.w3.org/2000/svg">
<path d="M10.5001 104.4L29.7001 124.5L48.9001 124.8L141 92.4L131.1 78.9C132 73.8 143.1 49.8 138.9 46.2L127.2 29.4L102.9 27.6C99.0001 24 87.0001 12.6 82.2001 14.7L26.4001 35.4C21.6001 37.2 18.0001 41.4 17.1001 46.5L18.9001 75.3C18.3001 80.4 6.3001 101.1 10.5001 104.4Z" fill="#AFE55D"/>
<path d="M127.2 31.5L105 26.4L88.8 9.59998C84.6 5.99998 64.8 8.99998 59.7 11.1L48 28.5L28.2 32.1C23.1 33.9 12.9 43.2 12 48.6L15 72L127.2 31.5Z" fill="#C3FF68"/>
<path d="M74.7 89.7C82.8186 89.7 89.4 83.1186 89.4 75C89.4 66.8814 82.8186 60.3 74.7 60.3C66.5814 60.3 60 66.8814 60 75C60 83.1186 66.5814 89.7 74.7 89.7Z" fill="#444444"/>
<path d="M133.2 75C138 70.8 141.3 65.4 142.8 59.4C144.6 51.9 143.4 44.1 139.5 37.5C135.6 30.9 129.6 26.1 122.1 23.7C116.1 21.9 109.8 21.9 103.8 24C102.6 18 99.6 12.3 94.8 8.1C89.4 3 82.2 0 74.7 0C67.2 0 59.7 3 54.3 8.1C49.8 12.3 46.5 18 45.3 24C39.3 22.2 33 21.9 27 23.7C19.8 25.8 13.5 30.9 9.59998 37.5C5.69998 44.1 4.49998 51.9 6.29998 59.4C7.79998 65.7 11.1 71.1 15.9 75C11.1 79.2 7.79998 84.6 6.29998 90.6C4.49998 98.1 5.69998 105.9 9.59998 112.5C13.5 119.1 19.5 123.9 27 126.3C33 128.1 39.3 128.1 45.3 126C46.5 132 49.5 137.7 54.3 141.9C60 147 67.2 150 74.7 150C81.9 150 88.8 147.3 94.2 142.8C91.8 140.7 89.4 138.9 87.3 136.8C83.7 139.2 79.2 140.7 74.7 140.7C62.7 140.7 52.5 131.4 51.9 119.4C51.9 118.5 51.3 117.6 50.7 117.3C50.4 117 49.8 117 49.5 117C49.2 117 48.6 117 48.3 117.3C37.5 122.7 24.3 118.5 18.3 108.3C12.3 98.1 15.3 84.3 25.5 77.7C26.1 77.1 26.7 76.5 26.7 75.6C26.7 74.7 26.4 73.8 25.5 73.5C15 66 12 52.8 18 42.3C24 31.8 37.2 27.9 48 33.3C48.9 33.6 49.8 33.6 50.4 33.3C51.3 33 51.6 32.1 51.6 31.2C52.5 19.2 62.4 9.9 74.4 9.9C86.4 9.9 96.6 19.2 97.2 31.2C97.2 32.1 97.8 33 98.4 33.3C99.3 33.6 100.2 33.9 100.8 33.3C111.6 27.9 124.8 32.1 130.8 42.3C136.8 52.8 133.8 66.3 123.6 72.9C123.6 73.2 123 74.1 123 75C123 75.9 123.3 76.8 124.2 77.1C134.1 83.7 137.4 97.2 131.4 107.7C129.9 110.4 127.8 112.5 125.7 114.3C128.1 116.4 130.2 118.5 132.6 120.6C135.3 118.2 137.7 115.5 139.5 112.5C143.4 105.9 144.6 98.1 142.8 90.6C141.3 84.6 138 79.2 133.2 75Z" fill="#444444"/>
<path d="M87.5999 142.8C85.7999 141 85.4999 138 87.2999 136.5C89.6999 135 92.6999 134.7 94.1999 136.2C95.9999 138 95.9999 141 94.1999 142.8C92.3999 144.6 89.3999 144.3 87.5999 142.8Z" fill="#444444"/>
<path d="M132.6 120.6C134.4 119.1 133.8 115.8 132 114.3C130.2 112.8 127.5 112.8 125.7 114.3C123.9 115.8 123.6 119.1 125.1 120.9C126.3 122.4 130.8 122.1 132.6 120.6Z" fill="#444444"/>
<path d="M24.6001 42C24.6001 42 49.2001 49.5 49.2001 75.3C49.2001 101.1 24.6001 106.5 24.6001 106.5" stroke="#444444" stroke-miterlimit="10"/>
<path d="M82.2001 17.4C82.2001 17.4 87.9001 43.2 61.8001 56.4C35.7001 69.6 18.3 55.5 18.3 55.5" stroke="#444444" stroke-miterlimit="10"/>
<path d="M131.1 55.2C131.1 55.2 108.3 68.7 85.2 57C62.1 45.3 66.9 17.4 66.9 17.4" stroke="#444444" stroke-miterlimit="10"/>
<path d="M123.9 106.5C123.9 106.5 99.6001 105 100.8 72.6C101.7 43.5 123.9 43.5 123.9 43.5" stroke="#444444" stroke-miterlimit="10"/>
<path d="M67.8 132.6C67.8 132.6 60.6 102.3 87.9 92.1C115.2 81.9 129.3 93.9 129.3 93.9" stroke="#444444" stroke-miterlimit="10"/>
<path d="M19.5 93.3001C19.5 93.3001 43.5 79.2001 65.1 93.3001C85.2 106.5 81.9 132.6 81.9 132.6" stroke="#444444" stroke-miterlimit="10"/>
</svg>

<svg xmlns="http://www.w3.org/2000/svg" fill="none" viewBox="0 0 150 150"><path fill="#AFE55D" d="M10.5 104.4l19.2 20.1 19.2.3L141 92.4l-9.9-13.5c.9-5.1 12-29.1 7.8-32.7l-11.7-16.8-24.3-1.8C99 24 87 12.6 82.2 14.7L26.4 35.4c-4.8 1.8-8.4 6-9.3 11.1l1.8 28.8c-.6 5.1-12.6 25.8-8.4 29.1z"/><path fill="#C3FF68" d="M127.2 31.5L105 26.4 88.8 9.6c-4.2-3.6-24-.6-29.1 1.5L48 28.5l-19.8 3.6C23.1 33.9 12.9 43.2 12 48.6L15 72l112.2-40.5z"/><path fill="#444" d="M74.7 89.7c8.119 0 14.7-6.581 14.7-14.7s-6.581-14.7-14.7-14.7S60 66.881 60 75s6.581 14.7 14.7 14.7z"/><path fill="#444" d="M133.2 75c4.8-4.2 8.1-9.6 9.6-15.6 1.8-7.5.6-15.3-3.3-21.9-3.9-6.6-9.9-11.4-17.4-13.8-6-1.8-12.3-1.8-18.3.3-1.2-6-4.2-11.7-9-15.9C89.4 3 82.2 0 74.7 0c-7.5 0-15 3-20.4 8.1-4.5 4.2-7.8 9.9-9 15.9-6-1.8-12.3-2.1-18.3-.3-7.2 2.1-13.5 7.2-17.4 13.8-3.9 6.6-5.1 14.4-3.3 21.9 1.5 6.3 4.8 11.7 9.6 15.6-4.8 4.2-8.1 9.6-9.6 15.6-1.8 7.5-.6 15.3 3.3 21.9 3.9 6.6 9.9 11.4 17.4 13.8 6 1.8 12.3 1.8 18.3-.3 1.2 6 4.2 11.7 9 15.9C60 147 67.2 150 74.7 150c7.2 0 14.1-2.7 19.5-7.2-2.4-2.1-4.8-3.9-6.9-6-3.6 2.4-8.1 3.9-12.6 3.9-12 0-22.2-9.3-22.8-21.3 0-.9-.6-1.8-1.2-2.1-.3-.3-.9-.3-1.2-.3-.3 0-.9 0-1.2.3-10.8 5.4-24 1.2-30-9s-3-24 7.2-30.6c.6-.6 1.2-1.2 1.2-2.1 0-.9-.3-1.8-1.2-2.1C15 66 12 52.8 18 42.3s19.2-14.4 30-9c.9.3 1.8.3 2.4 0 .9-.3 1.2-1.2 1.2-2.1.9-12 10.8-21.3 22.8-21.3s22.2 9.3 22.8 21.3c0 .9.6 1.8 1.2 2.1.9.3 1.8.6 2.4 0 10.8-5.4 24-1.2 30 9 6 10.5 3 24-7.2 30.6 0 .3-.6 1.2-.6 2.1 0 .9.3 1.8 1.2 2.1 9.9 6.6 13.2 20.1 7.2 30.6-1.5 2.7-3.6 4.8-5.7 6.6 2.4 2.1 4.5 4.2 6.9 6.3 2.7-2.4 5.1-5.1 6.9-8.1 3.9-6.6 5.1-14.4 3.3-21.9-1.5-6-4.8-11.4-9.6-15.6z"/><path fill="#444" d="M87.6 142.8c-1.8-1.8-2.1-4.8-.3-6.3 2.4-1.5 5.4-1.8 6.9-.3 1.8 1.8 1.8 4.8 0 6.6-1.8 1.8-4.8 1.5-6.6 0zm45-22.2c1.8-1.5 1.2-4.8-.6-6.3-1.8-1.5-4.5-1.5-6.3 0-1.8 1.5-2.1 4.8-.6 6.6 1.2 1.5 5.7 1.2 7.5-.3z"/><path stroke="#444" stroke-miterlimit="10" d="M24.6 42s24.6 7.5 24.6 33.3c0 25.8-24.6 31.2-24.6 31.2"/><path stroke="#444" stroke-miterlimit="10" d="M82.2 17.4s5.7 25.8-20.4 39c-26.1 13.2-43.5-.9-43.5-.9"/><path stroke="#444" stroke-miterlimit="10" d="M131.1 55.2S108.3 68.7 85.2 57C62.1 45.3 66.9 17.4 66.9 17.4"/><path stroke="#444" stroke-miterlimit="10" d="M123.9 106.5s-24.3-1.5-23.1-33.9c.9-29.1 23.1-29.1 23.1-29.1"/><path stroke="#444" stroke-miterlimit="10" d="M67.8 132.6s-7.2-30.3 20.1-40.5 41.4 1.8 41.4 1.8"/><path stroke="#444" stroke-miterlimit="10" d="M19.5 93.3s24-14.1 45.6 0c20.1 13.2 16.8 39.3 16.8 39.3"/></svg>
